images/item-started1.svg

<svg width="32" height="32" viewBox="0 0 32 32" fill="none" xmlns="http://www.w3.org/2000/svg">
<path fill-rule="evenodd" clip-rule="evenodd" d="M17.332 5.66699C17.8843 5.66699 18.332 6.11471 18.332 6.66699V25.3337C18.332 25.8859 17.8843 26.3337 17.332 26.3337C16.7797 26.3337 16.332 25.8859 16.332 25.3337V6.66699C16.332 6.11471 16.7797 5.66699 17.332 5.66699Z" fill="url(#paint0_linear_282_1783)"/>
<path fill-rule="evenodd" clip-rule="evenodd" d="M13.8838 3.16516C14.1645 3.35021 14.3333 3.66386 14.3333 4V28.6667C14.3333 28.9919 14.1752 29.2968 13.9094 29.4841C13.6436 29.6714 13.3032 29.7178 12.997 29.6084L3.66366 26.2751C3.26567 26.1329 3 25.7559 3 25.3333V8C3 7.59998 3.2384 7.23844 3.60608 7.08086L12.9394 3.08086C13.2484 2.94845 13.6032 2.98012 13.8838 3.16516ZM5 8.6594V24.6286L12.3333 27.2477V5.51654L5 8.6594Z" fill="#8060F6"/>
<path fill-rule="evenodd" clip-rule="evenodd" d="M22.668 5.66699C23.2203 5.66699 23.668 6.11471 23.668 6.66699V25.3337C23.668 25.8859 23.2203 26.3337 22.668 26.3337C22.1157 26.3337 21.668 25.8859 21.668 25.3337V6.66699C21.668 6.11471 22.1157 5.66699 22.668 5.66699Z" fill="#8060F6"/>
<path fill-rule="evenodd" clip-rule="evenodd" d="M28 5.66699C28.5523 5.66699 29 6.11471 29 6.66699V25.3337C29 25.8859 28.5523 26.3337 28 26.3337C27.4477 26.3337 27 25.8859 27 25.3337V6.66699C27 6.11471 27.4477 5.66699 28 5.66699Z" fill="#8060F6"/>
<defs>
<linearGradient id="paint0_linear_282_1783" x1="16.332" y1="26.3337" x2="20.5118" y2="25.883" gradientUnits="userSpaceOnUse">
<stop stop-color="#292758"/>
<stop offset="1" stop-color="#3A1FA0"/>
</linearGradient>
</defs>
</svg>

<svg width="32" height="32" fill="none" xmlns="http://www.w3.org/2000/svg"><path fill-rule="evenodd" clip-rule="evenodd" d="M17.332 5.667a1 1 0 0 1 1 1v18.667a1 1 0 0 1-2 0V6.667a1 1 0 0 1 1-1Z" fill="url(#a)"/><path fill-rule="evenodd" clip-rule="evenodd" d="M13.884 3.165a1 1 0 0 1 .45.835v24.667a1 1 0 0 1-1.337.941l-9.333-3.333A1 1 0 0 1 3 25.333V8a1 1 0 0 1 .606-.92l9.333-4a1 1 0 0 1 .945.085ZM5 8.66v15.97l7.333 2.619V5.517L5 8.659ZM22.668 5.667a1 1 0 0 1 1 1v18.667a1 1 0 0 1-2 0V6.667a1 1 0 0 1 1-1ZM28 5.667a1 1 0 0 1 1 1v18.667a1 1 0 0 1-2 0V6.667a1 1 0 0 1 1-1Z" fill="#8060F6"/><defs><linearGradient id="a" x1="16.332" y1="26.334" x2="20.512" y2="25.883" gradientUnits="userSpaceOnUse"><stop stop-color="#292758"/><stop offset="1" stop-color="#3A1FA0"/></linearGradient></defs></svg>
